usr/share/icons/big-icons/symbolic/actions/format-add-node.svg

<svg xmlns="http://www.w3.org/2000/svg" viewBox="0 0 16 16">
  <defs id="defs3051">
    <style type="text/css" id="current-color-scheme">
      .ColorScheme-Text {
        color:#eff0f1;
      }
      </style>
  </defs>
 <path style="fill:currentColor;fill-opacity:1;stroke:none" 
     d="M 3.5 2 C 2.6715729 2 2 2.6715729 2 3.5 C 2 4.1558381 2.413588 4.7024102 3 4.90625 L 3 5 L 3 6 L 3 11 L 2 11 L 2 14 L 5 14 L 5 13 L 8 13 L 8 12 L 5 12 L 5 11 L 4 11 L 4 6 L 4 5 L 4 4.90625 C 4.4320931 4.7560523 4.7560523 4.4320931 4.90625 4 L 5 4 L 6 4 L 11 4 L 11 5 L 12 5 L 12 8 L 13 8 L 13 5 L 14 5 L 14 2 L 11 2 L 11 3 L 6 3 L 5 3 L 4.90625 3 C 4.7024102 2.413588 4.1558381 2 3.5 2 z M 3.5 3 C 3.7761424 3 4 3.2238576 4 3.5 C 4 3.7761424 3.7761424 4 3.5 4 C 3.2238576 4 3 3.7761424 3 3.5 C 3 3.2238576 3.2238576 3 3.5 3 z M 12 3 L 13 3 L 13 4 L 12 4 L 12 3 z M 11 9 L 11 11 L 9 11 L 9 12 L 11 12 L 11 14 L 12 14 L 12 12 L 14 12 L 14 11 L 12 11 L 12 9 L 11 9 z M 3 12 L 4 12 L 4 13 L 3 13 L 3 12 z "
     class="ColorScheme-Text"
     />
</svg>

<svg xmlns="http://www.w3.org/2000/svg" viewBox="0 0 16 16">
<defs id="defs3051">
<style id="current-color-scheme" type="text/css">
.ColorScheme-Text{color:#fcfcfc}
</style>
</defs>
<path d="M3.5 2A1.5 1.5 0 0 0 2 3.5a1.48 1.48 0 0 0 1 1.406V11H2v3h3v-1h3v-1H5v-1H4V4.906c.432-.15.756-.474.906-.906H11v1h1v3h1V5h1V2h-3v1H4.906A1.48 1.48 0 0 0 3.5 2m0 1a.5.5 0 1 1 0 1 .5.5 0 0 1 0-1M12 3h1v1h-1zm-1 6v2H9v1h2v2h1v-2h2v-1h-2V9zm-8 3h1v1H3z" class="ColorScheme-Text" style="fill:currentColor;fill-opacity:1;stroke:none"/>
</svg>
